Obsidian-SemiLight/actions/16s/formula.svg

<svg viewBox="0 0 16 16" xmlns="http://www.w3.org/2000/svg"><path d="m9.1484375 2-2.5195313 9.408203-1.9667968-3.408203h-.2929688-.8632812-1.5058594v1h2.0839844l2.8867187 5 2.9472657-11h4.0820312v-1h-3.814453-.6562501z" fill="#4d4d4d"/></svg>

<svg xmlns="http://www.w3.org/2000/svg" viewBox="0 0 16 16">
  <defs id="defs3051">
    <style type="text/css" id="current-color-scheme">
      .ColorScheme-Text {
        color:#4d4d4d;
      }
      </style>
  </defs>
 <path style="fill:currentColor;fill-opacity:1;stroke:none" 
       d="M 9.1484375 2 L 6.6289062 11.408203 L 4.6621094 8 L 4.3691406 8 L 3.5058594 8 L 2 8 L 2 9 L 4.0839844 9 L 6.9707031 14 L 9.9179688 3 L 14 3 L 14 2 L 10.185547 2 L 9.5292969 2 L 9.1484375 2 z "
     class="ColorScheme-Text"
     />
</svg>
